public/static/img/common/copy.svg

<svg width="16" height="16" viewBox="0 0 16 16" fill="none" xmlns="http://www.w3.org/2000/svg" class="svg-class">
<path opacity="0.3" d="M10.561 4.15422H6.07691C5.01488 4.15422 4.15394 5.01516 4.15394 6.07719V10.5611C3.32191 10.52 2.87207 10.0323 2.87207 9.16547V4.27078C2.87207 3.36437 3.3641 2.87234 4.27051 2.87234H9.1652C10.0321 2.87234 10.5199 3.32219 10.561 4.15422Z" fill="#019B83"></path>
<path d="M6.83447 5.43609H11.7292C12.6357 5.43609 13.1276 5.92812 13.1276 6.83453V11.7292C13.1276 12.6358 12.6357 13.1277 11.7292 13.1277H6.83447C5.92791 13.1277 5.43604 12.6358 5.43604 11.7292V6.83453C5.43604 5.92812 5.92807 5.43609 6.83447 5.43609Z" fill="#019B83"></path>
</svg>

<svg width="16" height="16" fill="none" xmlns="http://www.w3.org/2000/svg" class="svg-class"><path opacity=".3" d="M10.561 4.154H6.077a1.923 1.923 0 0 0-1.923 1.923v4.484c-.832-.041-1.282-.529-1.282-1.396V4.271c0-.907.492-1.399 1.399-1.399h4.894c.867 0 1.355.45 1.396 1.282Z" fill="#019B83"/><path d="M6.834 5.436h4.895c.907 0 1.399.492 1.399 1.399v4.894c0 .907-.492 1.399-1.399 1.399H6.834c-.906 0-1.398-.492-1.398-1.399V6.835c0-.907.492-1.399 1.398-1.399Z" fill="#019B83"/></svg>
